Numix-GalliumOS/32/devices/media-memory-sd.svg

<?xml version="1.0" encoding="UTF-8" standalone="no"?>
<!-- Generator: flash2svg, http://dissentgraphics.com/tools/flash2svg -->

<svg
   xmlns:dc="http://purl.org/dc/elements/1.1/"
   xmlns:cc="http://creativecommons.org/ns#"
   xmlns:rdf="http://www.w3.org/1999/02/22-rdf-syntax-ns#"
   xmlns:svg="http://www.w3.org/2000/svg"
   xmlns="http://www.w3.org/2000/svg"
   xmlns:sodipodi="http://sodipodi.sourceforge.net/DTD/sodipodi-0.dtd"
   xmlns:inkscape="http://www.inkscape.org/namespaces/inkscape"
   sodipodi:docname="media-memory-sd.svg"
   inkscape:version="0.91 r"
   enable-background="new 0 0 1024 1024"
   viewBox="0 0 32 32"
   height="32"
   width="32"
   y="0px"
   x="0px"
   style="image-rendering:optimizeSpeed"
   version="1.1"
   id="Card-SD">
  <metadata
     id="metadata22">
    <rdf:RDF>
      <cc:Work
         rdf:about="">
        <dc:format>image/svg+xml</dc:format>
        <dc:type
           rdf:resource="http://purl.org/dc/dcmitype/StillImage" />
        <dc:title />
      </cc:Work>
    </rdf:RDF>
  </metadata>
  <sodipodi:namedview
     inkscape:current-layer="Card-SD"
     inkscape:window-maximized="1"
     inkscape:window-y="24"
     inkscape:window-x="0"
     inkscape:cy="-79.406707"
     inkscape:cx="29.262326"
     inkscape:zoom="2"
     showgrid="true"
     id="namedview20"
     inkscape:window-height="1056"
     inkscape:window-width="1920"
     inkscape:pageshadow="2"
     inkscape:pageopacity="0"
     guidetolerance="10"
     gridtolerance="10"
     objecttolerance="10"
     borderopacity="1"
     bordercolor="#666666"
     pagecolor="#ffffff">
    <inkscape:grid
       type="xygrid"
       id="grid4182" />
  </sodipodi:namedview>
  <defs
     transform="matrix(1 0 0 1 0 0) "
     id="defs3" />
  <rect
     style="opacity:1;fill:#8e8e8e;fill-opacity:1;fill-rule:nonzero;stroke:none;stroke-width:3;stroke-linecap:butt;stroke-linejoin:miter;stroke-miterlimit:4;stroke-dasharray:none;stroke-dashoffset:0;stroke-opacity:1"
     id="rect4666"
     width="1.4"
     height="2.8"
     x="24.6"
     y="9.1999998"
     rx="0.42668429"
     ry="0.42668357" />
  <path
     style="opacity:1;fill:#464646;fill-opacity:1;fill-rule:nonzero;stroke:none;stroke-width:3;stroke-linecap:butt;stroke-linejoin:miter;stroke-miterlimit:4;stroke-dasharray:none;stroke-dashoffset:0;stroke-opacity:1"
     d="m 9.5,2 15.6245,0 c 0.48475,0 0.835521,0.3918603 0.875,0.875 L 25.9995,9 25,9 l 0,6 0.9995,0 0,14.125 c 0,0.48475 -0.39025,0.875 -0.875,0.875 L 17.75,30 17.39985,29 14.6,29 14.25,30 6.875,30 C 6.39025,30 6,29.60975 6,29.125 L 6,12 7,12 7,10 6,10 6,5.5 Z"
     id="rect4651"
     inkscape:connector-curvature="0"
     sodipodi:nodetypes="cssccccssccccsccccccc" />
  <rect
     style="opacity:1;fill:#ffd642;fill-opacity:1;fill-rule:nonzero;stroke:none;stroke-width:3;stroke-linecap:butt;stroke-linejoin:miter;stroke-miterlimit:4;stroke-dasharray:none;stroke-dashoffset:0;stroke-opacity:1"
     id="rect4678"
     width="1.5"
     height="4"
     x="8"
     y="6"
     rx="0.34999999"
     ry="0.34999999" />
  <rect
     style="opacity:1;fill:#ffd642;fill-opacity:1;fill-rule:nonzero;stroke:none;stroke-width:3;stroke-linecap:butt;stroke-linejoin:miter;stroke-miterlimit:4;stroke-dasharray:none;stroke-dashoffset:0;stroke-opacity:1;image-rendering:optimizeSpeed"
     id="rect4678-3"
     width="1.5"
     height="6"
     x="10.9"
     y="4"
     rx="0.34999999"
     ry="0.34999999" />
  <rect
     style="opacity:0.2;fill:#faf2f2;fill-opacity:1;fill-rule:nonzero;stroke:none;stroke-width:3;stroke-linecap:butt;stroke-linejoin:miter;stroke-miterlimit:4;stroke-dasharray:none;stroke-dashoffset:0;stroke-opacity:1"
     id="rect4731"
     width="2"
     height="28"
     x="22"
     y="2" />
  <rect
     ry="0.34999999"
     rx="0.34999999"
     y="4"
     x="13.8"
     height="6"
     width="1.5"
     id="rect4142"
     style="opacity:1;fill:#ffd642;fill-opacity:1;fill-rule:nonzero;stroke:none;stroke-width:3;stroke-linecap:butt;stroke-linejoin:miter;stroke-miterlimit:4;stroke-dasharray:none;stroke-dashoffset:0;stroke-opacity:1;image-rendering:optimizeSpeed" />
  <rect
     ry="0.34999999"
     rx="0.34999999"
     y="4"
     x="16.700001"
     height="6"
     width="1.5"
     id="rect4144"
     style="opacity:1;fill:#ffd642;fill-opacity:1;fill-rule:nonzero;stroke:none;stroke-width:3;stroke-linecap:butt;stroke-linejoin:miter;stroke-miterlimit:4;stroke-dasharray:none;stroke-dashoffset:0;stroke-opacity:1;image-rendering:optimizeSpeed" />
  <rect
     style="opacity:1;fill:#ffd642;fill-opacity:1;fill-rule:nonzero;stroke:none;stroke-width:3;stroke-linecap:butt;stroke-linejoin:miter;stroke-miterlimit:4;stroke-dasharray:none;stroke-dashoffset:0;stroke-opacity:1;image-rendering:optimizeSpeed"
     id="rect4146"
     width="1.5"
     height="6"
     x="19.6"
     y="4"
     rx="0.34999999"
     ry="0.34999999" />
  <rect
     ry="0.34999999"
     rx="0.34999999"
     y="4"
     x="22.5"
     height="6"
     width="1.5"
     id="rect4148"
     style="opacity:1;fill:#ffd642;fill-opacity:1;fill-rule:nonzero;stroke:none;stroke-width:3;stroke-linecap:butt;stroke-linejoin:miter;stroke-miterlimit:4;stroke-dasharray:none;stroke-dashoffset:0;stroke-opacity:1;image-rendering:optimizeSpeed" />
</svg>

<!-- Generator: flash2svg, http://dissentgraphics.com/tools/flash2svg -->
<svg xmlns="http://www.w3.org/2000/svg" viewBox="0 0 32 32" style="image-rendering:optimizeSpeed;enable-background:new 0 0 1024 1024">
 <rect width="1.4" height="2.8" x="24.6" y="9.2" rx="0.427" style="fill:#8e8e8e;opacity:1;fill-opacity:1;stroke:none;fill-rule:nonzero"/>
 <path d="m 9.5 2 15.624 0 c 0.485 0 0.836 0.392 0.875 0.875 l 0 6.125 -1 0 l 0 6 1 0 0 14.13 c 0 0.485 -0.39 0.875 -0.875 0.875 l -7.375 0 -0.35 -1 -2.8 0 -0.35 1 -7.375 0 c -0.485 0 -0.875 -0.39 -0.875 -0.875 l 0 -17.12 1 0 0 -2 -1 0 0 -4.5" style="fill:#464646;opacity:1;fill-opacity:1;stroke:none;fill-rule:nonzero"/>
 <rect width="1.5" height="4" x="8" y="6" rx="0.35" style="fill:#ffd642;opacity:1;fill-opacity:1;stroke:none;fill-rule:nonzero"/>
 <rect width="1.5" height="6" x="10.9" y="4" rx="0.35" style="fill:#ffd642;opacity:1;fill-opacity:1;stroke:none;fill-rule:nonzero"/>
 <rect width="2" height="28" x="22" y="2" style="fill:#faf2f2;opacity:0.2;fill-opacity:1;stroke:none;fill-rule:nonzero"/>
 <rect rx="0.35" y="4" x="13.8" height="6" width="1.5" style="fill:#ffd642;opacity:1;fill-opacity:1;stroke:none;fill-rule:nonzero"/>
 <rect rx="0.35" y="4" x="16.7" height="6" width="1.5" style="fill:#ffd642;opacity:1;fill-opacity:1;stroke:none;fill-rule:nonzero"/>
 <rect width="1.5" height="6" x="19.6" y="4" rx="0.35" style="fill:#ffd642;opacity:1;fill-opacity:1;stroke:none;fill-rule:nonzero"/>
 <rect rx="0.35" y="4" x="22.5" height="6" width="1.5" style="fill:#ffd642;opacity:1;fill-opacity:1;stroke:none;fill-rule:nonzero"/>
</svg>
